dist/img/svg/ic_wa-solid.svg

<svg width="29" height="27" viewBox="0 0 29 27" fill="none" xmlns="http://www.w3.org/2000/svg">
<g clip-path="url(#clip0_100_1050)">
<path d="M14.7617 0.0625H14.7548C7.12685 0.0625 0.923828 6.04566 0.923828 13.4029C0.923828 16.3211 1.89916 19.0258 3.55756 21.222L1.83344 26.1779L7.15106 24.5387C9.33864 25.9361 11.9482 26.7432 14.7617 26.7432C22.3897 26.7432 28.5927 20.7584 28.5927 13.4029C28.5927 6.04732 22.3897 0.0625 14.7617 0.0625Z" fill="white"/>
<path d="M22.8129 18.901C22.4791 19.8098 21.1545 20.5636 20.0979 20.7837C19.375 20.9321 18.4308 21.0505 15.2524 19.7798C11.1868 18.1556 8.56858 14.1719 8.36452 13.9134C8.16911 13.6549 6.72168 11.8039 6.72168 9.88961C6.72168 7.97526 7.72987 7.0431 8.13625 6.64289C8.47001 6.31439 9.02166 6.16431 9.55083 6.16431C9.72203 6.16431 9.87594 6.17264 10.0143 6.17931C10.4207 6.19599 10.6247 6.21934 10.8928 6.838C11.2265 7.6134 12.0393 9.52775 12.1361 9.72452C12.2347 9.92129 12.3333 10.1881 12.1949 10.4466C12.0652 10.7134 11.9511 10.8318 11.747 11.0586C11.543 11.2853 11.3493 11.4588 11.1452 11.7022C10.9585 11.914 10.7475 12.1408 10.9827 12.5327C11.2179 12.9162 12.0307 14.1952 13.2273 15.2224C14.7716 16.5481 16.0236 16.9717 16.4715 17.1518C16.8053 17.2852 17.203 17.2535 17.4468 17.0034C17.7564 16.6815 18.1386 16.1479 18.5277 15.6226C18.8043 15.2458 19.1537 15.1991 19.5203 15.3325C19.8938 15.4575 21.8704 16.3997 22.2768 16.5948C22.6832 16.7916 22.9512 16.885 23.0498 17.05C23.1466 17.2151 23.1466 17.9905 22.8129 18.901Z" fill="#3F3C3C"/>
</g>
<defs>
<clipPath id="clip0_100_1050">
<rect width="27.6689" height="26.6807" fill="white" transform="translate(0.923828 0.0625)"/>
</clipPath>
</defs>
</svg>

<svg width="29" height="27" viewBox="0 0 29 27" fill="none" xmlns="http://www.w3.org/2000/svg"><g clip-path="url(#clip0_100_1050)"><path d="M14.762.063h-.007C7.127.063.924 6.045.924 13.402c0 2.918.975 5.623 2.634 7.819l-1.725 4.956 5.318-1.64a14.08 14.08 0 007.61 2.205c7.629 0 13.832-5.985 13.832-13.34 0-7.356-6.203-13.34-13.831-13.34z" fill="#fff"/><path d="M22.813 18.901c-.334.909-1.659 1.663-2.715 1.883-.723.148-1.667.267-4.846-1.004-4.065-1.624-6.683-5.608-6.887-5.867-.196-.258-1.643-2.11-1.643-4.023 0-1.915 1.008-2.847 1.414-3.247.334-.329.886-.479 1.415-.479.171 0 .325.009.463.015.407.017.61.04.879.659.333.775 1.146 2.69 1.243 2.887.099.196.197.463.059.722-.13.266-.244.385-.448.612-.204.226-.398.4-.602.643-.186.212-.397.439-.162.83.235.384 1.048 1.663 2.244 2.69 1.545 1.326 2.797 1.75 3.244 1.93.334.133.732.101.976-.149.31-.322.692-.855 1.08-1.38.277-.377.627-.424.993-.29.374.124 2.35 1.067 2.757 1.262.406.197.674.29.773.455.097.165.097.94-.237 1.851z" fill="#3F3C3C"/></g><defs><clipPath id="clip0_100_1050"><path fill="#fff" transform="translate(.924 .063)" d="M0 0h27.669v26.681H0z"/></clipPath></defs></svg>
